; generated by PrusaSlicer 2.5.0+MacOS-x64 on 2022-11-03 at 15:42:55 UTC


;
;

;
;
; 

; external perimeters extrusion width = 0.45mm
; perimeters extrusion width = 0.45mm
; infill extrusion width = 0.45mm
; solid infill extrusion width = 0.45mm
; top infill extrusion width = 0.40mm
; support material extrusion width = 0.35mm
; first layer extrusion width = 0.42mm

M73 P0 R410
M201 X2500 Y2500 Z400 E5000 ; sets maximum accelerations, mm/sec^2
M203 X180 Y180 Z12 E80 ; sets maximum feedrates, mm / sec
M204 P1250 R1250 T2500 ; sets acceleration (P, T) and retract acceleration (R), mm/sec^2
M205 X8.00 Y8.00 Z2.00 E10.00 ; sets the jerk limits, mm/sec
M205 S0 T0 ; sets the minimum extruding and travel feed rate, mm/sec
M107
;TYPE:Custom
M862.3 P "MINI" ; printer model check
G90 ; use absolute coordinates
M83 ; extruder relative mode
M104 S170 ; set extruder temp for bed leveling
M140 S60 ; set bed temp
M109 R170 ; wait for bed leveling temp
M190 S60 ; wait for bed temp
M204 T1250 ; set travel acceleration
G28 ; home all without mesh bed level
G29 ; mesh bed leveling 
M204 T2500 ; restore travel acceleration
M104 S215 ; set extruder temp
G92 E0
G1 Y-2 X179 F2400
G1 Z3 F720
M109 S215 ; wait for extruder temp

; intro line
G1 X170 F1000
G1 Z0.2 F720
G1 X110 E8 F900
G1 X40 E10 F700
G92 E0

M221 S95 ; set flow
G21 ; set units to millimeters
G90 ; use absolute coordinates
M83 ; use relative distances for extrusion
M900 K0.2 ; Filament gcode LA 1.5
; ; Filament gcode LA 1.0
M107
;LAYER_CHANGE
;Z:0.2
;HEIGHT:0.2
;BEFORE_LAYER_CHANGE
G92 E0.0
;0.2


G1 E-3.2 F4200
G1 Z.2 F720
;AFTER_LAYER_CHANGE
;0.2
G1 Z.4
G1 X63.015 Y63.693 F9000
G1 Z.2 F720
G1 E3.2 F2400
M204 P800
;TYPE:Skirt/Brim
;WIDTH:0.42
G1 F1200
G1 X64.06 Y62.817 E.04278
G1 X65 Y62.623 E.03008
G1 X115 Y62.623 E1.56771
G1 X116.307 Y63.015 E.04278
G1 X117.183 Y64.06 E.04278
G1 X117.377 Y65 E.03008
G1 X117.377 Y115 E1.56771
G1 X116.985 Y116.307 E.04278
G1 X115.94 Y117.183 E.04278
G1 X115 Y117.377 E.03008
G1 X65 Y117.377 E1.56771
G1 X63.693 Y116.985 E.04278
G1 X62.817 Y115.94 E.04278
G1 X62.623 Y115 E.03008
G1 X62.623 Y65 E1.56771
G1 X62.997 Y63.75 E.0409
M204 P1000
; printing object Printer test.stl id:0 copy 0
G1 E-2.24 F4200
;WIPE_START
G1 F7200
G1 X64.06 Y62.817 E-.78411
G1 X64.286 Y62.77 E-.12789
;WIPE_END
G1 E-.048 F4200
G1 Z.4 F720
G1 X66.164 Y66.164 F9000
G1 Z.2 F720
G1 E3.2 F2400
M204 P800
;TYPE:Perimeter
;WIDTH:0.419999
G1 F1200
G1 X113.836 Y66.164 E1.49471
G1 X113.836 Y113.836 E1.49471
G1 X66.164 Y113.836 E1.49471
G1 X66.164 Y66.224 E1.49283
M204 P1000
G1 X65.787 Y65.787 F9000
M204 P800
G1 F1200
G1 X114.213 Y65.787 E1.51836
G1 X114.213 Y114.213 E1.51836
G1 X65.787 Y114.213 E1.51836
G1 X65.787 Y65.847 E1.51647
M204 P1000
M73 P0 R409
G1 X65.41 Y65.41 F9000
M204 P800
;TYPE:External perimeter
G1 F1200
G1 X114.59 Y65.41 E1.542
G1 X114.59 Y114.59 E1.542
G1 X65.41 Y114.59 E1.542
G1 X65.41 Y65.47 E1.54012
M204 P1000
G1 X65.796 Y65.514 F9000
G1 E-2.24 F4200
;WIPE_START
G1 F7200
G1 X67.056 Y65.468 E-.912
;WIPE_END
G1 E-.048 F4200
G1 Z.4 F720
G1 X112.96 Y66.277 F9000
G1 Z.2 F720
G1 E3.2 F2400
M204 P800
;TYPE:Solid infill
;WIDTH:0.420174
G1 F1200
G1 X113.553 Y66.87 E.0263
G1 X113.553 Y67.404 E.01674
G1 X112.596 Y66.447 E.04245
G1 X112.063 Y66.447 E.01674
G1 X113.553 Y67.937 E.06611
G1 X113.553 Y68.471 E.01674
G1 X111.529 Y66.447 E.08978
G1 X110.996 Y66.447 E.01674
G1 X113.553 Y69.004 E.11345
G1 X113.553 Y69.538 E.01674
G1 X110.462 Y66.447 E.13712
G1 X109.929 Y66.447 E.01674
G1 X113.553 Y70.071 E.16079
G1 X113.553 Y70.605 E.01674
G1 X109.395 Y66.447 E.18445
G1 X108.862 Y66.447 E.01674
G1 X113.553 Y71.138 E.20812
G1 X113.553 Y71.672 E.01674
G1 X108.328 Y66.447 E.23179
G1 X107.795 Y66.447 E.01674
G1 X113.553 Y72.205 E.25546
G1 X113.553 Y72.739 E.01674
G1 X107.261 Y66.447 E.27913
G1 X106.728 Y66.447 E.01674
G1 X113.553 Y73.272 E.30279
G1 X113.553 Y73.806 E.01674
G1 X106.194 Y66.447 E.32646
G1 X105.661 Y66.447 E.01674
G1 X113.553 Y74.339 E.35013
G1 X113.553 Y74.873 E.01674
G1 X105.127 Y66.447 E.3738
G1 X104.593 Y66.447 E.01674
G1 X113.553 Y75.407 E.39747
G1 X113.553 Y75.94 E.01674
G1 X104.06 Y66.447 E.42113
G1 X103.526 Y66.447 E.01674
G1 X113.553 Y76.474 E.4448
G1 X113.553 Y77.007 E.01674
G1 X102.993 Y66.447 E.46847
G1 X102.459 Y66.447 E.01674
G1 X113.553 Y77.541 E.49214
G1 X113.553 Y78.074 E.01674
G1 X101.926 Y66.447 E.51581
G1 X101.392 Y66.447 E.01674
G1 X113.553 Y78.608 E.53947
G1 X113.553 Y79.141 E.01674
G1 X100.859 Y66.447 E.56314
G1 X100.325 Y66.447 E.01674
G1 X113.553 Y79.675 E.58681
G1 X113.553 Y80.208 E.01674
G1 X99.792 Y66.447 E.61048
G1 X99.258 Y66.447 E.01674
G1 X113.553 Y80.742 E.63415
G1 X113.553 Y81.275 E.01674
G1 X98.725 Y66.447 E.65781
G1 X98.191 Y66.447 E.01674
G1 X113.553 Y81.809 E.68148
G1 X113.553 Y82.342 E.01674
G1 X97.658 Y66.447 E.70515
G1 X97.124 Y66.447 E.01674
G1 X113.553 Y82.876 E.72882
G1 X113.553 Y83.409 E.01674
G1 X96.591 Y66.447 E.75249
G1 X96.057 Y66.447 E.01674
G1 X113.553 Y83.943 E.77615
G1 X113.553 Y84.476 E.01674
G1 X95.524 Y66.447 E.79982
G1 X94.99 Y66.447 E.01674
G1 X113.553 Y85.01 E.82349
G1 X113.553 Y85.543 E.01674
G1 X94.457 Y66.447 E.84716
G1 X93.923 Y66.447 E.01674
G1 X113.553 Y86.077 E.87083
G1 X113.553 Y86.61 E.01674
G1 X93.39 Y66.447 E.89449
G1 X92.856 Y66.447 E.01674
G1 X113.553 Y87.144 E.91816
G1 X113.553 Y87.677 E.01674
G1 X92.323 Y66.447 E.94183
G1 X91.789 Y66.447 E.01674
G1 X113.553 Y88.211 E.9655
G1 X113.553 Y88.744 E.01674
G1 X91.256 Y66.447 E.98917
G1 X90.722 Y66.447 E.01674
G1 X113.553 Y89.278 E1.01283
G1 X113.553 Y89.811 E.01674
G1 X90.189 Y66.447 E1.0365
G1 X89.655 Y66.447 E.01674
G1 X113.553 Y90.345 E1.06017
G1 X113.553 Y90.879 E.01674
G1 X89.121 Y66.447 E1.08384
G1 X88.588 Y66.447 E.01674
G1 X113.553 Y91.412 E1.10751
G1 X113.553 Y91.946 E.01674
G1 X88.054 Y66.447 E1.13117
G1 X87.521 Y66.447 E.01674
G1 X113.553 Y92.479 E1.15484
G1 X113.553 Y93.013 E.01674
M73 P0 R408
G1 X86.987 Y66.447 E1.17851
G1 X86.454 Y66.447 E.01674
G1 X113.553 Y93.546 E1.20218
G1 X113.553 Y94.08 E.01674
G1 X85.92 Y66.447 E1.22585
G1 X85.387 Y66.447 E.01674
G1 X113.553 Y94.613 E1.24951
G1 X113.553 Y95.147 E.01674
G1 X84.853 Y66.447 E1.27318
G1 X84.32 Y66.447 E.01674
G1 X113.553 Y95.68 E1.29685
G1 X113.553 Y96.214 E.01674
G1 X83.786 Y66.447 E1.32052
G1 X83.253 Y66.447 E.01674
G1 X113.553 Y96.747 E1.34419
G1 X113.553 Y97.281 E.01674
G1 X82.719 Y66.447 E1.36785
G1 X82.186 Y66.447 E.01674
G1 X113.553 Y97.814 E1.39152
G1 X113.553 Y98.348 E.01674
G1 X81.652 Y66.447 E1.41519
G1 X81.119 Y66.447 E.01674
G1 X113.553 Y98.881 E1.43886
G1 X113.553 Y99.415 E.01674
G1 X80.585 Y66.447 E1.46253
G1 X80.052 Y66.447 E.01674
G1 X113.553 Y99.948 E1.48619
G1 X113.553 Y100.482 E.01674
G1 X79.518 Y66.447 E1.50986
G1 X78.985 Y66.447 E.01674
G1 X113.553 Y101.015 E1.53353
G1 X113.553 Y101.549 E.01674
G1 X78.451 Y66.447 E1.5572
G1 X77.918 Y66.447 E.01674
G1 X113.553 Y102.082 E1.58087
G1 X113.553 Y102.616 E.01674
G1 X77.384 Y66.447 E1.60453
G1 X76.851 Y66.447 E.01674
G1 X113.553 Y103.149 E1.6282
G1 X113.553 Y103.683 E.01674
G1 X76.317 Y66.447 E1.65187
G1 X75.784 Y66.447 E.01674
G1 X113.553 Y104.216 E1.67554
G1 X113.553 Y104.75 E.01674
G1 X75.25 Y66.447 E1.69921
G1 X74.716 Y66.447 E.01674
G1 X113.553 Y105.284 E1.72287
G1 X113.553 Y105.817 E.01674
G1 X74.183 Y66.447 E1.74654
G1 X73.649 Y66.447 E.01674
M73 P0 R407
G1 X113.553 Y106.351 E1.77021
G1 X113.553 Y106.884 E.01674
G1 X73.116 Y66.447 E1.79388
G1 X72.582 Y66.447 E.01674
G1 X113.553 Y107.418 E1.81755
G1 X113.553 Y107.951 E.01674
G1 X72.049 Y66.447 E1.84121
G1 X71.515 Y66.447 E.01674
G1 X113.553 Y108.485 E1.86488
G1 X113.553 Y109.018 E.01674
G1 X70.982 Y66.447 E1.88855
G1 X70.448 Y66.447 E.01674
G1 X113.553 Y109.552 E1.91222
G1 X113.553 Y110.085 E.01674
G1 X69.915 Y66.447 E1.93589
G1 X69.381 Y66.447 E.01674
G1 X113.553 Y110.619 E1.95955
G1 X113.553 Y111.152 E.01674
G1 X68.848 Y66.447 E1.98322
G1 X68.314 Y66.447 E.01674
G1 X113.553 Y111.686 E2.00689
G1 X113.553 Y112.219 E.01674
G1 X67.781 Y66.447 E2.03056
G1 X67.247 Y66.447 E.01674
G1 X113.553 Y112.753 E2.05423
G1 X113.553 Y113.286 E.01674
G1 X66.714 Y66.447 E2.07789
G1 X66.447 Y66.447 E.00837
G1 X66.447 Y66.714 E.00837
G1 X113.286 Y113.553 E2.0779
G1 X112.753 Y113.553 E.01674
G1 X66.447 Y67.247 E2.05423
G1 X66.447 Y67.781 E.01674
G1 X112.219 Y113.553 E2.03056
G1 X111.686 Y113.553 E.01674
G1 X66.447 Y68.314 E2.00689
G1 X66.447 Y68.848 E.01674
G1 X111.152 Y113.553 E1.98322
G1 X110.619 Y113.553 E.01674
M73 P0 R406
G1 X66.447 Y69.381 E1.95956
G1 X66.447 Y69.915 E.01674
G1 X110.085 Y113.553 E1.93589
G1 X109.552 Y113.553 E.01674
G1 X66.447 Y70.448 E1.91222
G1 X66.447 Y70.982 E.01674
G1 X109.018 Y113.553 E1.88855
G1 X108.485 Y113.553 E.01674
G1 X66.447 Y71.515 E1.86488
G1 X66.447 Y72.049 E.01674
G1 X107.951 Y113.553 E1.84122
G1 X107.418 Y113.553 E.01674
G1 X66.447 Y72.582 E1.81755
G1 X66.447 Y73.116 E.01674
G1 X106.884 Y113.553 E1.79388
G1 X106.351 Y113.553 E.01674
M73 P1 R406
G1 X66.447 Y73.649 E1.77021
G1 X66.447 Y74.183 E.01674
G1 X105.817 Y113.553 E1.74654
G1 X105.284 Y113.553 E.01674
G1 X66.447 Y74.716 E1.72288
G1 X66.447 Y75.25 E.01674
G1 X104.75 Y113.553 E1.69921
G1 X104.217 Y113.553 E.01674
G1 X66.447 Y75.783 E1.67554
G1 X66.447 Y76.317 E.01674
G1 X103.683 Y113.553 E1.65187
G1 X103.149 Y113.553 E.01674
G1 X66.447 Y76.851 E1.6282
G1 X66.447 Y77.384 E.01674
G1 X102.616 Y113.553 E1.60454
G1 X102.082 Y113.553 E.01674
G1 X66.447 Y77.918 E1.58087
G1 X66.447 Y78.451 E.01674
G1 X101.549 Y113.553 E1.5572
G1 X101.015 Y113.553 E.01674
G1 X66.447 Y78.985 E1.53353
G1 X66.447 Y79.518 E.01674
G1 X100.482 Y113.553 E1.50986
G1 X99.948 Y113.553 E.01674
G1 X66.447 Y80.052 E1.4862
G1 X66.447 Y80.585 E.01674
G1 X99.415 Y113.553 E1.46253
G1 X98.881 Y113.553 E.01674
M73 P1 R405
G1 X66.447 Y81.119 E1.43886
G1 X66.447 Y81.652 E.01674
G1 X98.348 Y113.553 E1.41519
G1 X97.814 Y113.553 E.01674
G1 X66.447 Y82.186 E1.39152
G1 X66.447 Y82.719 E.01674
G1 X97.281 Y113.553 E1.36786
G1 X96.747 Y113.553 E.01674
G1 X66.447 Y83.253 E1.34419
G1 X66.447 Y83.786 E.01674
G1 X96.214 Y113.553 E1.32052
G1 X95.68 Y113.553 E.01674
G1 X66.447 Y84.32 E1.29685
G1 X66.447 Y84.853 E.01674
G1 X95.147 Y113.553 E1.27318
G1 X94.613 Y113.553 E.01674
G1 X66.447 Y85.387 E1.24952
G1 X66.447 Y85.92 E.01674
G1 X94.08 Y113.553 E1.22585
G1 X93.546 Y113.553 E.01674
G1 X66.447 Y86.454 E1.20218
G1 X66.447 Y86.987 E.01674
G1 X93.013 Y113.553 E1.17851
G1 X92.479 Y113.553 E.01674
G1 X66.447 Y87.521 E1.15484
G1 X66.447 Y88.054 E.01674
G1 X91.946 Y113.553 E1.13118
G1 X91.412 Y113.553 E.01674
G1 X66.447 Y88.588 E1.10751
G1 X66.447 Y89.121 E.01674
G1 X90.879 Y113.553 E1.08384
G1 X90.345 Y113.553 E.01674
G1 X66.447 Y89.655 E1.06017
G1 X66.447 Y90.188 E.01674
G1 X89.812 Y113.553 E1.0365
G1 X89.278 Y113.553 E.01674
G1 X66.447 Y90.722 E1.01284
G1 X66.447 Y91.256 E.01674
G1 X88.744 Y113.553 E.98917
G1 X88.211 Y113.553 E.01674
G1 X66.447 Y91.789 E.9655
G1 X66.447 Y92.323 E.01674
G1 X87.677 Y113.553 E.94183
G1 X87.144 Y113.553 E.01674
G1 X66.447 Y92.856 E.91816
G1 X66.447 Y93.39 E.01674
G1 X86.61 Y113.553 E.8945
G1 X86.077 Y113.553 E.01674
G1 X66.447 Y93.923 E.87083
G1 X66.447 Y94.457 E.01674
G1 X85.543 Y113.553 E.84716
G1 X85.01 Y113.553 E.01674
G1 X66.447 Y94.99 E.82349
G1 X66.447 Y95.524 E.01674
G1 X84.476 Y113.553 E.79982
G1 X83.943 Y113.553 E.01674
G1 X66.447 Y96.057 E.77616
G1 X66.447 Y96.591 E.01674
G1 X83.409 Y113.553 E.75249
G1 X82.876 Y113.553 E.01674
G1 X66.447 Y97.124 E.72882
G1 X66.447 Y97.658 E.01674
G1 X82.342 Y113.553 E.70515
G1 X81.809 Y113.553 E.01674
G1 X66.447 Y98.191 E.68148
G1 X66.447 Y98.725 E.01674
G1 X81.275 Y113.553 E.65782
G1 X80.742 Y113.553 E.01674
G1 X66.447 Y99.258 E.63415
G1 X66.447 Y99.792 E.01674
M73 P1 R404
G1 X80.208 Y113.553 E.61048
G1 X79.675 Y113.553 E.01674
G1 X66.447 Y100.325 E.58681
G1 X66.447 Y100.859 E.01674
G1 X79.141 Y113.553 E.56314
G1 X78.608 Y113.553 E.01674
G1 X66.447 Y101.392 E.53948
G1 X66.447 Y101.926 E.01674
G1 X78.074 Y113.553 E.51581
G1 X77.541 Y113.553 E.01674
G1 X66.447 Y102.459 E.49214
G1 X66.447 Y102.993 E.01674
G1 X77.007 Y113.553 E.46847
G1 X76.474 Y113.553 E.01674
G1 X66.447 Y103.526 E.4448
G1 X66.447 Y104.06 E.01674
G1 X75.94 Y113.553 E.42114
G1 X75.407 Y113.553 E.01674
G1 X66.447 Y104.593 E.39747
G1 X66.447 Y105.127 E.01674
G1 X74.873 Y113.553 E.3738
G1 X74.34 Y113.553 E.01674
G1 X66.447 Y105.66 E.35013
G1 X66.447 Y106.194 E.01674
G1 X73.806 Y113.553 E.32646
G1 X73.272 Y113.553 E.01674
G1 X66.447 Y106.728 E.3028
G1 X66.447 Y107.261 E.01674
G1 X72.739 Y113.553 E.27913
G1 X72.205 Y113.553 E.01674
G1 X66.447 Y107.795 E.25546
G1 X66.447 Y108.328 E.01674
G1 X71.672 Y113.553 E.23179
G1 X71.138 Y113.553 E.01674
G1 X66.447 Y108.862 E.20812
G1 X66.447 Y109.395 E.01674
G1 X70.605 Y113.553 E.18445
G1 X70.071 Y113.553 E.01674
G1 X66.447 Y109.929 E.16079
G1 X66.447 Y110.462 E.01674
G1 X69.538 Y113.553 E.13712
G1 X69.004 Y113.553 E.01674
G1 X66.447 Y110.996 E.11345
G1 X66.447 Y111.529 E.01674
G1 X68.471 Y113.553 E.08978
G1 X67.937 Y113.553 E.01674
G1 X66.447 Y112.063 E.06611
G1 X66.447 Y112.596 E.01674
G1 X67.404 Y113.553 E.04245
G1 X66.87 Y113.553 E.01674
G1 X66.277 Y112.96 E.02631
M204 P1000
; stop printing object Printer test.stl id:0 copy 0
M106 S84.15
;LAYER_CHANGE
;Z:0.3
;HEIGHT:0.1
;BEFORE_LAYER_CHANGE
G92 E0.0
;0.3


G1 E-2.24 F4200
;WIPE_START
G1 F7200
G1 X66.87 Y113.553 E-.46474
G1 X67.404 Y113.553 E-.29566
G1 X67.21 Y113.36 E-.15161
;WIPE_END
G1 E-.048 F4200
G1 Z.4 F720
;AFTER_LAYER_CHANGE
;0.3
M104 S210 ; set temperature
G1 X67.21 Y117.377 F9000
G1 Z.3 F720
G1 E3.2 F2400
;TYPE:Skirt/Brim
;WIDTH:0.42
G1 X65 Y117.377 E.03662
G1 X63.693 Y116.985 E.02261
G1 X62.817 Y115.94 E.02261
G1 X62.623 Y115 E.0159
G1 X62.623 Y65 E.82847
G1 X63.015 Y63.693 E.02261
G1 X64.06 Y62.817 E.02261
G1 X65 Y62.623 E.0159
G1 X115 Y62.623 E.82847
G1 X116.307 Y63.015 E.02261
G1 X117.183 Y64.06 E.02261
G1 X117.377 Y65 E.0159
G1 X117.377 Y115 E.82847
G1 X116.985 Y116.307 E.02261
G1 X115.94 Y117.183 E.02261
G1 X115 Y117.377 E.0159
G1 X67.27 Y117.377 E.79085
; printing object Printer test.stl id:0 copy 0
G1 E-2.24 F4200
;WIPE_START
G1 F7200
G1 X65.625 Y117.377 E-.912
;WIPE_END
G1 E-.048 F4200
G1 Z.5 F720
G1 X66.082 Y66.082 F9000
G1 Z.3 F720
G1 E3.2 F2400
M204 P600
;TYPE:Perimeter
;WIDTH:0.449999
G1 X113.918 Y66.082 E.85227
G1 X113.918 Y113.918 E.85227
G1 X66.082 Y113.918 E.85227
G1 X66.082 Y66.142 E.8512
M204 P1000
G1 X65.654 Y65.654 F9000
M204 P600
G1 F2400
G1 X114.346 Y65.654 E.86754
G1 X114.346 Y114.346 E.86754
G1 X65.654 Y114.346 E.86754
G1 X65.654 Y65.714 E.86647
M204 P1000
G1 X65.225 Y65.225 F9000
M204 P600
;TYPE:External perimeter
G1 F1800
G1 X114.775 Y65.225 E.88281
G1 X114.775 Y114.775 E.88281
G1 X65.225 Y114.775 E.88281
G1 X65.225 Y65.285 E.88174
M204 P1000
G1 X65.611 Y65.329 F9000
G1 E-2.24 F4200
;WIPE_START
G1 F7200
G1 X66.871 Y65.283 E-.912
;WIPE_END
G1 E-.048 F4200
G1 Z.5 F720
G1 X112.922 Y113.789 F9000
G1 Z.3 F720
G1 E3.2 F2400
;TYPE:Solid infill
;WIDTH:0.450422
G1 F4800
G1 X113.597 Y113.115 E.01701
G1 X113.597 Y112.508 E.01082
G1 X112.508 Y113.597 E.02744
G1 X111.902 Y113.597 E.01082
G1 X113.597 Y111.902 E.04274
G1 X113.597 Y111.295 E.01082
G1 X111.295 Y113.597 E.05805
G1 X110.688 Y113.597 E.01082
G1 X113.597 Y110.688 E.07335
G1 X113.597 Y110.082 E.01082
G1 X110.082 Y113.597 E.08865
G1 X109.475 Y113.597 E.01082
G1 X113.597 Y109.475 E.10395
G1 X113.597 Y108.869 E.01082
G1 X108.869 Y113.597 E.11925
G1 X108.262 Y113.597 E.01082
G1 X113.597 Y108.262 E.13455
G1 X113.597 Y107.655 E.01082
G1 X107.655 Y113.597 E.14985
G1 X107.049 Y113.597 E.01082
G1 X113.597 Y107.049 E.16515
G1 X113.597 Y106.442 E.01082
G1 X106.442 Y113.597 E.18045
G1 X105.835 Y113.597 E.01082
G1 X113.597 Y105.835 E.19575
G1 X113.597 Y105.229 E.01082
G1 X105.229 Y113.597 E.21105
G1 X104.622 Y113.597 E.01082
G1 X113.597 Y104.622 E.22635
G1 X113.597 Y104.015 E.01082
G1 X104.015 Y113.597 E.24165
G1 X103.409 Y113.597 E.01082
G1 X113.597 Y103.409 E.25695
G1 X113.597 Y102.802 E.01082
G1 X102.802 Y113.597 E.27225
G1 X102.195 Y113.597 E.01082
G1 X113.597 Y102.195 E.28755
G1 X113.597 Y101.589 E.01082
G1 X101.589 Y113.597 E.30285
